X:5
T:The Fairie's Hornpipe
R:hornpipe
O:Ireland
M:4/4
L:1/8
K:G
D2 | "G" GFGA      BdcB | "D" AGAB "G" G2 Bc | "G" dgfg "Am" edcB | "C" cedB "D" A2 Bc |
     "G" dgfa "C" g2 fe | "D" dedc "G" B2 AG | "Am" ABcA "D" dcAF | "G" G2    GG    G2 :| 
Bc | "G" dggf     g2 fe | "D" dedc "G" B2 AG | "Am" ABcA "C" edcB | "D" A2  dd   d2 Bc |
     "G" dggf     g2 fe | "D" dedc "G" B2 AG | "Am" ABcA "D" dcAF | "G" G2    GG    G2 :|
